src/images/icon/icon_logo_nocalhost.svg

<svg height="20" viewBox="0 0 20 20" width="20" xmlns="http://www.w3.org/2000/svg"><g fill="none" fill-rule="evenodd" transform="translate(0 3.571429)"><path d="m8.26086957 0c2.40123803 0 4.34782613 1.91877964 4.34782613 4.28571429h3.7391304c.3361733 0 .6086956.26862915.6086956.6v3.68571428c0 2.36693463-1.946588 4.28571433-4.347826 4.28571433-2.4012381 0-4.34782613-1.9187797-4.34782613-4.28571433l-.2106561-.00494211c-.74439752-.03500446-1.43974585-.25453723-2.04000233-.61321338-.30642625 1.33527243-1.51844125 2.33244122-2.96673288 2.33244122-1.68086663 0-3.04347826-1.34314576-3.04347826-3.00000001s1.36261163-3 3.04347826-3c.30348981 0 .59660441.04378696.87319653.12530145l-.00363131-.12530145c0-2.36693465 1.94658804-4.28571429 4.34782609-4.28571429z" fill="#36435c"/><path d="m19.3913043 1.28571429c.3361734 0 .6086957.26862915.6086957.6v3.94285714c0 .33137085-.2725223.6-.6086957.6l-1.298701-.00085714.0002357-2.66201415c0-.29823376-.2207431-.54564675-.5099621-.59214701l-.0987336-.00785299-2.70154-.00098585.0000054-1.279c0-.33137085.2725223-.6.6086956-.6z" fill="#b6c2cd"/></g></svg>

<?xml version="1.0" encoding="UTF-8"?>
<svg width="20px" height="20px" viewBox="0 0 20 20" version="1.1" xmlns="http://www.w3.org/2000/svg" xmlns:xlink="http://www.w3.org/1999/xlink">
    
    <g id="Dashboard" stroke="none" stroke-width="1" fill="none" fill-rule="evenodd">
        <g id="00-Menu-交互备份" transform="translate(-299.000000, -299.000000)">
            <g id="icon_close" transform="translate(299.000000, 299.000000)">
                <g id="编组-23" transform="translate(0.000000, 3.571429)">
                    <path d="M8.26086957,-5.32907052e-14 C10.6621076,-5.32907052e-14 12.6086957,1.91877964 12.6086957,4.28571429 L12.6086957,4.28571429 L16.3478261,4.28571429 C16.6839994,4.28571429 16.9565217,4.55434344 16.9565217,4.88571429 L16.9565217,8.57142857 C16.9565217,10.9383632 15.0099337,12.8571429 12.6086957,12.8571429 C10.2074576,12.8571429 8.26086957,10.9383632 8.26086957,8.57142857 L8.05021347,8.56648646 C7.30581595,8.531482 6.61046762,8.31194923 6.01021114,7.95327308 C5.70378489,9.28854551 4.49176989,10.2857143 3.04347826,10.2857143 C1.36261163,10.2857143 5.72875081e-14,8.94256854 5.72875081e-14,7.28571429 C5.72875081e-14,5.62886004 1.36261163,4.28571429 3.04347826,4.28571429 C3.34696807,4.28571429 3.64008267,4.32950125 3.91667479,4.41101574 L3.91304348,4.28571429 C3.91304348,1.91877964 5.85963152,-5.32907052e-14 8.26086957,-5.32907052e-14 Z" id="形状结合" fill="#36435C"></path>
                    <path d="M19.3913043,1.28571429 C19.7274777,1.28571429 20,1.55434344 20,1.88571429 L20,5.82857143 C20,6.15994228 19.7274777,6.42857143 19.3913043,6.42857143 L18.0926033,6.42771429 L18.092839,3.76570014 C18.092839,3.46746638 17.8720959,3.22005339 17.5828769,3.17355313 L17.4841433,3.16570014 L14.7826033,3.16471429 L14.7826087,1.88571429 C14.7826087,1.55434344 15.055131,1.28571429 15.3913043,1.28571429 L19.3913043,1.28571429 Z" id="形状结合" fill="#B6C2CD"></path>
                </g>
            </g>
        </g>
    </g>
</svg>
